!!!COM: Music21
!!!OTL: Falcatruadas
!!!OMV: pezas_polca_falcatruadas_falcatruadas-partitura.musicxml
**kern
*part1
*staff1
*I"Gaita
*I'Bag
*clefG^2
*k[]
*M2/4
*MM100
=1
!LO:TX:a:t=[quarter]=100
4r
4cc
.
.
.
=||
4ee
.
.
.
16cccLL
16bb
16aa
16ggJJ
=
4ee
4dd
.
.
.
=
4ff
.
.
.
16dddLL
16ccc
16bb
16aaJJ
=
4ee
16eeLL
16gg
16bb
16eeJJ
!!linebreak:original
=
16ggLL
16bb
16ddd
16ggJJ
16cccLL
16bb
16aa
16ggJJ
=
4ff
16ffLL
16aa
16ccc
16ffJJ
!!linebreak:original
=
16aaLL
16ccc
16eee
16aaJJ
16dddLL
16ccc
16bb
16aaJJ
=
4ee
4cc
.
.
.
=
4ee
.
.
.
16cccLL
16bb
16aa
16ggJJ
=
4ee
4dd
.
.
.
=
4ff
.
.
.
16dddLL
16ccc
16bb
16aaJJ
=
4ee
16eeLL
16gg
16bb
16eeJJ
!!linebreak:original
=
16ggLL
16bb
16ddd
16ggJJ
16cccLL
16bb
16aa
16ggJJ
!!linebreak:original
=
4ff
16ffLL
16aa
16ccc
16ffJJ
=
16aaLL
16ccc
16eee
16aaJJ
16dddLL
16ccc
16bb
16aaJJ
=
4ee
16cccLL
16ee
16ccc
16ccJJ
=||
16cccLL
16ee
16eee
16ccJJ
16cccLL
16ee
16eee
16ccJJ
=
4ccc
16dddLL
16ff
16ddd
16ddJJ
=
16dddLL
16ff
16ccc
16ddJJ
16dddLL
16ff
16ccc
16dddJJ
!!pagebreak:original
=
4eee
16cccLL
16ee
16ccc
16ccJJ
=||
16cccLL
16ee
16eee
16ccJJ
16cccLL
16ee
16eee
16ccJJ
=
4ccc
16dddLL
16ff
16ddd
16ddJJ
=
16dddLL
16ff
16ccc
16ddJJ
16dddLL
16ff
16ccc
16dddJJ
!!linebreak:original
=
4ee
.
.
16cccLL
16ee
16ccc
16ccJJ
=||
16cccLL
16ee
16eee
16ccJJ
16cccLL
16ee
16eee
16ccJJ
=
4ccc
.
.
16dddLL
16ff
16ddd
16ddJJ
=
16dddLL
16ff
16ccc
16ddJJ
16dddLL
16ff
16ccc
16dddJJ
=
4eee
4cc
.
.
=
8ggL
[8ccJ
.
8ccL]
.
16eeL
16ggJJ
!!linebreak:original
=
8ccL
16ddL
16ffJJ
16ddLL
16ffJ
8bJ
!!linebreak:original
=
8ffL
16ggK
8.aa
16cccL
16dddJJ
=
4eee
.
.
16cccLL
16ee
16ccc
16ccJJ
=||
16cccLL
16ee
16eee
16ccJJ
16cccLL
16ee
16eee
16ccJJ
=
4ccc
.
.
16dddLL
16ff
16ddd
16ddJJ
=
16dddLL
16ff
16ccc
16ddJJ
16dddLL
16ff
16ccc
16dddJJ
=
4eee
4cc
.
.
!!linebreak:original
=
8ggL
[8ccJ
.
8ccL]
.
16eeL
16ggJJ
=
8ccL
16ddL
16ffJJ
16ddLL
16ffJ
8bJ
!!linebreak:original
=
8ffL
16ggK
8.aa
16cccL
16dddJJ
=
4gg
4cc
.
.
.
==
*-
!!!system-decoration: s1,s2
